public/images/icons/shapeshift.svg

<svg width="84" height="84" viewBox="0 0 84 84" fill="none" xmlns="http://www.w3.org/2000/svg">
<path fill-rule="evenodd" clip-rule="evenodd" d="M75.1934 7.02295L71.4754 29.3311L58.2557 13.7705L75.1934 7.02295ZM71.4754 38.8328L74.7803 51.0885L49.4426 58.1115L71.4754 38.8328ZM16.3934 32.7738L30.0262 15.0098H53.5738L68.5836 32.7738H16.3934ZM66.9311 37.0426L42.4197 58.5246L17.3574 37.0426H66.9311ZM25.482 13.7705L13.3639 29.6066L9.6459 7.02295L25.482 13.7705ZM35.1213 58.1115L9.5082 51.0885L12.9508 39.1082L35.1213 58.1115ZM39.8033 63.8951L34.9836 69.1279C30.8525 65.2721 26.4459 61.8295 21.6262 58.8L39.8033 63.8951ZM63.2131 58.8C58.3934 61.8295 53.9869 65.2721 49.8557 69.1279L44.8984 63.7574L63.2131 58.8ZM80.7016 0L54.1246 10.6033H29.3377L4 0L9.78361 34.8393L4.27541 53.7049L18.7344 62.3803C25.6197 66.5115 31.6787 71.6066 36.9115 77.5279L42.5574 84L48.4787 77.2525C53.5738 71.4689 59.4951 66.5115 65.9672 62.3803L80.0131 53.5672L74.918 34.8393L80.7016 0Z" fill="url(#paint0_linear_56_90)"/>
<defs>
<linearGradient id="paint0_linear_56_90" x1="4" y1="42" x2="67.486" y2="13.0344" gradientUnits="userSpaceOnUse">
<stop stop-color="#FFE7E0"/>
<stop offset="0.109375" stop-color="#F8DBF4"/>
<stop offset="0.526042" stop-color="#C4DDFF"/>
<stop offset="1" stop-color="#CAE9FF"/>
</linearGradient>
</defs>
</svg>

<svg viewBox="0 0 84 84" fill="none" xmlns="http://www.w3.org/2000/svg"><path fill-rule="evenodd" clip-rule="evenodd" d="m75.193 7.023-3.718 22.308-13.22-15.56 16.938-6.748Zm-3.718 31.81 3.305 12.256-25.337 7.023 22.032-19.28Zm-55.082-6.06L30.026 15.01h23.548l15.01 17.764h-52.19Zm50.538 4.27L42.42 58.525 17.357 37.043h49.574ZM25.482 13.77 13.364 29.607 9.646 7.023l15.836 6.748Zm9.64 44.341L9.507 51.09l3.443-11.98L35.12 58.11Zm4.681 5.784-4.82 5.233c-4.13-3.856-8.537-7.298-13.357-10.328l18.177 5.095Zm23.41-5.095c-4.82 3.03-9.226 6.472-13.357 10.328l-4.958-5.37L63.213 58.8ZM80.702 0 54.125 10.603H29.338L4 0l5.784 34.84-5.509 18.865 14.46 8.675c6.885 4.131 12.944 9.227 18.176 15.148L42.557 84l5.922-6.748c5.095-5.783 11.016-10.74 17.488-14.872l14.046-8.813-5.095-18.728L80.702 0Z" fill="url(#a)"/><defs><linearGradient id="a" x1="4" y1="42" x2="67.486" y2="13.034" gradientUnits="userSpaceOnUse"><stop stop-color="#FFE7E0"/><stop offset=".109" stop-color="#F8DBF4"/><stop offset=".526" stop-color="#C4DDFF"/><stop offset="1" stop-color="#CAE9FF"/></linearGradient></defs></svg>
